X:1
T:The Flood On The Holm
M:4/4
L:1/8
R:reel
K:Dmaj
AG |: FD (3DDD FGAd | cdAd BE (3EEE | FD (3DDD FGAd | cdAG FD (3DDD :|
fdcd ABcd | efgf eEEg | fdcd ABcA | GAEF Ddde |
fdcd ABcd | efgf eE (3EEE | DFEG FAGB | AFGE FDFA ||
d2AG FDFA | Beed cABc | d2 AG FGAg | fdec dfec |
d2AG FADA | Beed cABc | dcdA BGBd | AFGE FD D2 ||
fgaf dAFA | GBed cA A2 | fgaf dAFA | GBEc dD D2 |
fgaf dAFA | GBed cA A2 | dfeg fagb |afge fdd2 ||
d2 AG FDA,D | B,DA,D CEAc | d2 AFGB ed | ceag fd d2 |
d2 AG FDA,D | B,DA,D CEAc | dcdA BGBd | AFGE D2 ||
